X: 11
T: Humours Of Whiskey, The
Z: Rice Paddy
S: https://thesession.org/tunes/46#setting50128
R: slip jig
M: 9/8
L: 1/8
K: Bmin
"Bm"fge fBB fBB|fge fBB fga|gfe fBB fBB|"G"agf "D/F#"efd "Em"cBA|
"Gmaj7"fge fBB fBB|fge fBB fga|gfe fBB fBB|"A"agf efd cBA||
|:"D"d2e fdf ecA|"Em"d2e fed fga|"D/F#"d2e fdf ecA|"G"agf efd cBA:|

%-------------------- TUNE SEPARATOR --------------------%

